!!!OTL: Frauen-Trau.
!!!OTL-incipit:'S IST GEWISS UND KEIN GEDICHT
!!!ARE: Europa, Mitteleuropa, Deutschland
!!!SCT: F0087
!!!TXL: @@DE
!!!YEM: Copyright 1995, estate of Helmut Schaffrath.
**kern	**text
*ICvox	*
*clefG2	*
*M3/4	*
*k[f#]	*
*G:	*
{8.d	1._'s_iſt
16d	ge-
=1	=1
4.g	-wiß
8g	und
8f#	kein
8g	Gedicht,
=2	=2
4a	.
4r}	.
{8g	was
8b/	das
=3	=3
4dd	Buch
4b	der
8a	Weisheit
8b/	.
=4	=4
4g	ſpricht
4r}	.
{8g	man
8b/	ſoll
=5	=5
4dd	kei-
4dd	-ner
8a	Frauen
8cc	.
=6	=6
(8b\L	trau-
8aJ)	.
4g}	-en,
{8g	und
8b/	ſein
=7	=7
4dd	Glück_auf
4dd	keine
8a	Sandbank
8cc	.
=8	=8
(8bL\	bau-
8aJ)	.
4g}	-en.
{8.d	's_iſt
16d	ge-
=9	=9
4.g	-wiß
8g	und
8f#	kein
8g	Ge-
=10	=10
4a	-dicht
8r}	.
{(>8d	drum
8g)	traut
8b	nur
=11	=11
4dd	kei-
4b	-ner
8a	Frauen
8b/	.
=12	=12
4g	nicht.
4r}	.
==	==
!!!AGN: Moral - Lied, Misstrauen gegen Frauen
!!!ONB: ESAC (Essen Associative Code) Database: FINK
!!!AMT: simple triple
!!!AIN: vox
!!!EED: Helmut Schaffrath
!!!EEV: 1.0
!!!RDF**kern: > = above
!!!GTL: Volkslieder
!!!source: Musikalischer Hausschatz der Deutschen. Eine Sammlung von über 1000 Liedern und Gesängen mit Singstimmen und Klavierbegleitung. Leipzig, Litterarisches Verlags-Haus.
!!!page: 53
!!!URL-scan: https://www.digitale-sammlungen.de/en/view/bsb11144622?page=60,61
!!!ENC: Anna Maria Matuszewska
!!!EEV: 2024/07/25
*-	*-
